X:1
T:Silvestik
C:du Barzaz Breiz : An distro euz a Vro Zaoz, fichier abc : Bernard Loffet
L:1/8
Q:160
M:3/4
K:C
 z4 E2 |: [A2A,,2] A,A [cA,]e | [d/G,,/]c/B [zG,]z [zG,]e | [A2F,,2] F,A [(3^GE,]AB | \
|1 [A2A,,2] A,2 [E2A,2] :|2 [A2A,,2] A,2 [A2A,2] | [e2A,,2] A,d [(3fF,]ed | [c2C,,2] C,2 [zC,]d | \
 [e2G,,2] G,d [BG,]d | [c2F,,2] F,2 [zF,]d | [d2D,,2] D,B [dD,]e | [d/E,,/]c/B [zE,]z [zE,]e | \
 [A2F,,2] F,A [(3^GE,]AB | [A2A,,2] A,4 | \
W:Created with TablEdit http://www.tabledit.com/ by Bernard Loffet
